X:1
T:Kaibab, 87.87 D
T:Kaibab, 87.87 D
T:O. W. Schaeffer, 1885
T:Public Domain Courtesy of the Cyber Hymnal™
C:O. W. Schaeffer, 1885
Z:Public Domain
Z:Courtesy of the Cyber Hymnal™
%%score 1 2
L:1/8
Q:1/4=90
M:6/8
K:Eb
V:1 treble 
V:2 bass 
V:1
 [EB]>[E=A][EB] [Ec][EB][EG] | [EG]3 [DF]3 | [DF]>[EG][FA] [^F=A][GB][D=F] | %3
 [EG]6 [EB]>[E=A][EB][Ec][EB][EG] | [EG]3 [DF]3 |!<(! [Fd]>[Ge][Fd]!<)! [Ec][EG][E=A] | [DB]6 | %7
 [FA]>[GB][FA] [EG][DF][B,E] | [EG]3 [DF]3 | [=Ec]>[E_d][Ec] [Ec][EG][EB] | [FA]6 | %11
 [DF]>[EG][FA] [GB][Ac][Ad] | [Af]3 !fermata![Ge]3 | [EF][^Fd][Fc]"^riten." [GB][B,E][B,^E] | %14
 [B,E]6 |] %15
V:2
 [E,G,]>[E,^F,][E,G,] [E,A,][E,G,][E,B,] | [B,,B,]3 [B,,B,]3 | %2
 [B,,B,]>[B,,B,][B,,B,] [B,,B,][B,,B,][B,,B,] | [E,B,]6 [E,G,]>[E,^F,][E,G,][E,A,][E,G,][E,B,] | %4
 [B,,B,]3 [B,,B,]3 | [F,B,]>[F,B,][F,B,] [F,=A,][F,A,][F,C] | [B,,B,]6 | %7
 [B,,B,]>[B,,B,][B,,B,] [B,,B,][B,,A,][B,,G,] | [E,B,]3 [B,,B,]3 | %9
 [C,G,]>[C,G,][C,G,] [C,G,][C,C][C,C] | [F,C]6 | [B,,B,]>[B,,B,][B,,B,] [B,,B,][B,,B,][B,,B,] | %12
 [E,B,]3 !fermata![E,B,]3 | [A,,C][=A,,E][A,,E] [B,,B,][B,,G,][B,,=A,] | [E,G,]6 |] %15

